X: 9
T: Gongchan dang laile
%%abc-version 2.0
%%abcx-abcm2ps-target-version 5.9.1 (29 Sep 2008)
%%abc-creator hum2abc beta
%%abcx-conversion-date 2013/10/02 07:44:27
%%abc-edited-by Helmut Schaffrath
%%humdrum-veritas 2599906514
%%humdrum-veritas-data 260508173
%%continueall 1
%%barnumbers 0
L: 1/8
M: 3/4
K: C
D2G2 [I:setbarnb 1]| 
c4 | 
d4- | 
d2g2 | 
d/ g/d3- | 
d2c A | 
G Gz2 | 
DG3 | 
c/ d/c3 | 
d4- | 
d3^c | 
d4- | 
d2g2 | 
c cG4 | 
[M:2/4]d/ g/d3 | 
cz3 | 
D2G2 | 
c4 | 
d4- | 
d2g2 | 
d2c A | 
d4 | 
[M:3/4]c AG2z2 | 
D2G4 | 
[M:2/4]d cc2 | 
d3^c | 
d4- | 
d2g2 | 
D2G c | 
[M:3/4]cG2c d/ c/ z | 
c G G z c d | 
[M:2/4]c G G z | 
c d | 
c4 | 
d4 | 
cz3 |]  



